; generated by Slic3r 1.2.9 on 2016-01-20 at 20:18:07

; external perimeters extrusion width = 0.40mm
; perimeters extrusion width = 0.48mm
; infill extrusion width = 0.48mm
; solid infill extrusion width = 0.48mm
; top infill extrusion width = 0.48mm

M127
M109 S110 ; set bed temperature
T0; set primary extruder to left
M73 P0; enable show build progress
M109 S110 T0; heat bed up to first layer temperature
M104 S235 T0; heat left nozzle to first layer temperature
M103; disable RPM
G21; set units to mm
G162 X Y F6000; home XY axes maximum
G161 Z F9000; home Z axis minimum
G92 Z0; set Z to 0
M132 X Y Z A B; Recall stored home offsets
G90; set positioning to absolute
G1 Z30; move Z to waiting height
G1 X-95 Y-73 Z30 F14000; move to waiting position (front left corner of print bed)
G130 X0 Y0 A0 B0; set stepper motor vref to lower value while heating
M6 T0; wait for bed and extruder to heat up
G130 X127 Y127 A127 B127; set stepper motor vref to defaults
M108 T0 R3; set extruder speed
G92 E0; set E to 0
G90; use absolute coordinates
M320; acceleration enabled for all commands that follow
G1 Z0.4 F6000.000; move to first layer height
G1 X100 Y-73 F14000.000; move to front right corner of bed
G1 X-90 Y-73 E24 F2000.000; extrude a line of filament across the front edge of the bed
G4 P2000; wait for ooze to slow
G1 Z0 F6000.000; lower nozzle height to 0
G1 X-95; wipe nozzle
G1 Z0.4 F6000.000; set nozzle to first layer height
G1 F12000; ensure fast travel to first print move
G92 E0; set E to 0 again
M73 P0; reset build progress to 0
G21 ; set units to millimeters
G90 ; use absolute coordinates
M73 P0
G1 Z0.400 F7800.000
G1 E-2.00000 F2400.00000
G1 X-19.640 Y-19.640 F7800.000
G1 E0.00000 F2400.00000
G1 X-12.248 Y-27.033 E1.24170 F1800.000
G1 X-10.359 Y-28.361 E1.51592
G1 X-7.500 Y-29.000 E1.86379
G1 X7.500 Y-29.000 E3.64527
G1 X9.775 Y-28.603 E3.91950
G1 X12.248 Y-27.033 E4.26737 F1800.000
G1 X27.033 Y-12.248 E6.75076
G1 X28.361 Y-10.359 E7.02499
G1 X29.000 Y-7.500 E7.37286
G1 X29.000 Y7.500 E9.15434
G1 X28.603 Y9.775 E9.42856
G1 X27.033 Y12.248 E9.77643
G1 X12.248 Y27.033 E12.25983
G1 X10.359 Y28.361 E12.53405
G1 X7.500 Y29.000 E12.88192
G1 X-7.500 Y29.000 E14.66340
G1 X-9.775 Y28.603 E14.93763
G1 X-12.248 Y27.033 E15.28550
G1 X-27.033 Y12.248 E17.76889
G1 X-28.361 Y10.359 E18.04312
G1 X-29.000 Y7.500 E18.39099
G1 X-29.000 Y-7.500 E20.17247
G1 X-28.603 Y-9.775 E20.44669
G1 X-27.033 Y-12.248 E20.79456
G1 X-19.683 Y-19.598 E22.02913
G1 E20.02913 F2400.00000
G1 X-3.814 Y-3.814 F7800.000
G1 E22.02913 F2400.00000
G1 X-2.697 Y-4.671 E22.19637 F1800.000
G1 X-1.396 Y-5.210 E22.36361
G1 X-0.300 Y-5.355 E22.49492
G1 X0.000 Y-5.394 E22.53085 F1800.000
G1 X1.396 Y-5.210 E22.69809
G1 X2.697 Y-4.671 E22.86532
G1 X3.814 Y-3.814 E23.03256
G1 X4.671 Y-2.697 E23.19980
G1 X5.210 Y-1.396 E23.36704
G1 X5.394 Y-0.000 E23.53428
G1 X5.210 Y1.396 E23.70152
G1 X4.671 Y2.697 E23.86875
G1 X3.814 Y3.814 E24.03599
G1 X2.697 Y4.671 E24.20323
G1 X1.396 Y5.210 E24.37047
G1 X-0.000 Y5.394 E24.53771
G1 X-1.396 Y5.210 E24.70495
G1 X-2.697 Y4.671 E24.87218
G1 X-3.814 Y3.814 E25.03942
G1 X-4.671 Y2.697 E25.20666
G1 X-5.208 Y1.401 E25.37325
G1 X-5.398 Y0.026 E25.53811
G1 X-5.210 Y-1.396 E25.70846
G1 X-4.671 Y-2.697 E25.87570
G1 X-3.851 Y-3.767 E26.03581
G1 X-3.305 Y-3.305 F7800.000
G1 X-2.337 Y-4.048 E26.18072 F1800.000
G1 X-1.210 Y-4.515 E26.32562
G1 X-0.207 Y-4.647 E26.44577
G1 X0.000 Y-4.674 E26.47053 F1800.000
G1 X1.210 Y-4.515 E26.61543
G1 X2.337 Y-4.048 E26.76034
G1 X3.305 Y-3.305 E26.90524
G1 X4.048 Y-2.337 E27.05015
G1 X4.515 Y-1.210 E27.19505
G1 X4.674 Y-0.000 E27.33996
G1 X4.515 Y1.210 E27.48486
G1 X4.048 Y2.337 E27.62977
G1 X3.305 Y3.305 E27.77467
G1 X2.337 Y4.048 E27.91958
G1 X1.210 Y4.515 E28.06449
G1 X-0.000 Y4.674 E28.20939
G1 X-1.210 Y4.515 E28.35430
G1 X-2.337 Y4.048 E28.49920
G1 X-3.305 Y3.305 E28.64411
G1 X-4.048 Y2.337 E28.78901
G1 X-4.513 Y1.213 E28.93352
G1 X-4.677 Y0.024 E29.07606
G1 X-4.515 Y-1.210 E29.22381
G1 X-4.048 Y-2.337 E29.36872
G1 X-3.341 Y-3.257 E29.50650
G1 X-2.796 Y-2.796 F7800.000
G1 X-1.977 Y-3.424 E29.62907 F1800.000
G1 X-1.023 Y-3.819 E29.75164
G1 X-0.113 Y-3.939 E29.86063
G1 X0.000 Y-3.953 E29.87422 F1800.000
G1 X1.023 Y-3.819 E29.99679
G1 X1.977 Y-3.424 E30.11936
G1 X2.796 Y-2.796 E30.24194
G1 X3.424 Y-1.977 E30.36451
G1 X3.819 Y-1.023 E30.48708
G1 X3.953 Y-0.000 E30.60965
G1 X3.819 Y1.023 E30.73222
G1 X3.424 Y1.977 E30.85480
G1 X2.796 Y2.796 E30.97737
G1 X1.977 Y3.424 E31.09994
G1 X1.023 Y3.819 E31.22252
G1 X-0.000 Y3.953 E31.34509
G1 X-1.023 Y3.819 E31.46766
G1 X-1.977 Y3.424 E31.59023
G1 X-2.796 Y2.796 E31.71281
G1 X-3.424 Y1.977 E31.83538
G1 X-3.818 Y1.024 E31.95781
G1 X-3.956 Y0.022 E32.07801
G1 X-3.819 Y-1.023 E32.20318
G1 X-3.424 Y-1.977 E32.32575
G1 X-2.832 Y-2.748 E32.44120
G1 X-2.882 Y-3.186 F7800.000
G1 X-13.600 Y-13.600 F7800.000
G1 X-6.743 Y-20.457 E33.59296 F1800.000
G1 X6.743 Y-20.457 E35.19455
G1 X20.457 Y-6.743 E37.49806
G1 X20.457 Y6.743 E39.09966 F1800.000
G1 X6.743 Y20.457 E41.40317
G1 X-6.743 Y20.457 E43.00476
G1 X-20.457 Y6.743 E45.30828
G1 X-20.457 Y-6.743 E46.90987
G1 X-13.642 Y-13.558 E48.05450
G1 X-14.105 Y-14.105 F7800.000
G1 X-7.039 Y-21.172 E49.24139 F1800.000
G1 X7.038 Y-21.172 E50.91325
G1 X21.172 Y-7.039 E53.28703
G1 X21.172 Y7.039 E54.95888 F1800.000
G1 X7.038 Y21.172 E57.33266
G1 X-7.038 Y21.172 E59.00452
G1 X-21.172 Y7.039 E61.37830
G1 X-21.172 Y-7.039 E63.05016
G1 X-14.147 Y-14.063 E64.22992
G1 X-14.610 Y-14.610 F7800.000
G1 X-7.334 Y-21.886 E65.45194 F1800.000
G1 X7.334 Y-21.886 E67.19406
G1 X21.886 Y-7.334 E69.63811
G1 X21.886 Y7.334 E71.38023 F1800.000
G1 X7.334 Y21.886 E73.82427
G1 X-7.334 Y21.886 E75.56640
G1 X-21.886 Y7.334 E78.01044
G1 X-21.886 Y-7.334 E79.75256
G1 X-14.652 Y-14.568 E80.96746
G1 X-14.224 Y-14.506 F7800.000
G1 X-5.667 Y1.425 F7800.000
G1 X-16.868 Y-9.776 E82.85476 F1800.000
G1 X-16.362 Y-10.283 E82.94011
G1 X-5.829 Y0.250 E84.71480
G1 X-5.728 Y-0.662 E84.82414
G1 X-15.855 Y-10.789 E86.53050
G1 X-15.349 Y-11.296 E86.61585
G1 X-5.578 Y-1.525 E88.26207
G1 X-5.281 Y-2.242 E88.35445
G1 X-14.842 Y-11.803 E89.96533
G1 X-14.335 Y-12.309 E90.05068
G1 X-4.961 Y-2.935 E91.63012
G1 X-4.521 Y-3.508 E91.71620
G1 X-13.829 Y-12.816 E93.28441
G1 X-13.322 Y-13.322 E93.36976
G1 X-4.081 Y-4.081 E94.92673
G1 X-3.508 Y-4.521 E95.01282
G1 X-12.816 Y-13.829 E96.58102
G1 X-12.309 Y-14.335 E96.66637
G1 X-2.935 Y-4.961 E98.24581
G1 X-2.242 Y-5.281 E98.33677
G1 X-11.803 Y-14.842 E99.94764
G1 X-11.296 Y-15.349 E100.03299
G1 X-1.525 Y-5.578 E101.67921
G1 X-0.662 Y-5.728 E101.78361
G1 X-10.789 Y-15.855 E103.48997
G1 X-10.283 Y-16.362 E103.57532
G1 X0.258 Y-5.821 E105.35134
G1 X1.425 Y-5.667 E105.49155
G1 X-9.776 Y-16.868 E107.37880
G1 X-9.270 Y-17.375 E107.46415
G1 X3.021 Y-5.084 E109.53504
G1 X5.084 Y-3.021 F7800.000
G1 X17.375 Y9.270 E111.60593 F1800.000
G1 X17.881 Y8.763 E111.69128
G1 X-8.763 Y-17.881 E116.18052
G1 X-8.257 Y-18.388 E116.26587
G1 X18.388 Y8.257 E120.75512
G1 X18.895 Y7.750 E120.84047
G1 X-7.750 Y-18.895 E125.32971
G1 X-7.243 Y-19.401 E125.41506
G1 X19.401 Y7.243 E129.90431
G1 X19.908 Y6.737 E129.98966
G1 X-6.737 Y-19.908 E134.47890
G1 X-5.838 Y-20.022 E134.58686
G1 X20.022 Y5.838 E138.94388
G1 X20.022 Y4.825 E139.06458
G1 X-4.825 Y-20.022 E143.25089
G1 X-3.812 Y-20.022 E143.37160
G1 X20.022 Y3.812 E147.38721
G1 X20.022 Y2.799 E147.50791
G1 X-2.799 Y-20.022 E151.35283
G1 X-1.785 Y-20.022 E151.47353
G1 X20.022 Y1.785 E155.14774
G1 X20.022 Y0.772 E155.26844
G1 X-0.772 Y-20.022 E158.77196
G1 X0.241 Y-20.022 E158.89266
G1 X20.022 Y-0.241 E162.22547
G1 X20.022 Y-1.254 E162.34618
G1 X1.254 Y-20.022 E165.50829
G1 X2.267 Y-20.022 E165.62900
G1 X20.022 Y-2.267 E168.62041
G1 X20.022 Y-3.280 E168.74111
G1 X3.280 Y-20.022 E171.56183
G1 X4.293 Y-20.022 E171.68253
G1 X20.022 Y-4.293 E174.33254
G1 X20.022 Y-5.307 E174.45325
G1 X5.307 Y-20.022 E176.93256
G1 X6.320 Y-20.022 E177.05326
G1 X20.022 Y-6.320 E179.36188
G1 X5.667 Y-1.425 F7800.000
G1 X16.868 Y9.776 E181.24914 F1800.000
G1 X16.362 Y10.283 E181.33449
G1 X5.821 Y-0.258 E183.11051
G1 X5.728 Y0.662 E183.22069
G1 X15.855 Y10.789 E184.92704
G1 X15.349 Y11.296 E185.01239
G1 X5.578 Y1.525 E186.65862
G1 X5.281 Y2.242 E186.75100
G1 X14.842 Y11.803 E188.36187
G1 X14.335 Y12.309 E188.44722
G1 X4.961 Y2.935 E190.02666
G1 X4.521 Y3.508 E190.11275
G1 X13.829 Y12.816 E191.68096
G1 X13.322 Y13.322 E191.76631
G1 X4.081 Y4.081 E193.32327
G1 X3.508 Y4.521 E193.40936
G1 X12.816 Y13.829 E194.97757
G1 X12.309 Y14.335 E195.06292
G1 X2.935 Y4.961 E196.64236
G1 X2.242 Y5.281 E196.73331
G1 X11.803 Y14.842 E198.34418
G1 X11.296 Y15.349 E198.42953
G1 X1.525 Y5.578 E200.07576
G1 X0.662 Y5.728 E200.18016
G1 X10.789 Y15.855 E201.88652
G1 X10.283 Y16.362 E201.97187
G1 X-0.258 Y5.821 E203.74790
G1 X-1.425 Y5.667 E203.88810
G1 X9.776 Y16.868 E205.77536
G1 X9.270 Y17.375 E205.86071
G1 X-3.021 Y5.084 E207.93160
G1 X-5.084 Y3.021 F7800.000
G1 X-17.375 Y-9.270 E210.00249 F1800.000
G1 X-17.881 Y-8.763 E210.08784
G1 X8.763 Y17.881 E214.57709
G1 X8.257 Y18.388 E214.66244
G1 X-18.388 Y-8.257 E219.15168
G1 X-18.895 Y-7.750 E219.23703
G1 X7.750 Y18.895 E223.72627
G1 X7.243 Y19.401 E223.81162
G1 X-19.401 Y-7.243 E228.30087
G1 X-19.908 Y-6.737 E228.38622
G1 X6.737 Y19.908 E232.87546
G1 X5.838 Y20.022 E232.98343
G1 X-20.022 Y-5.838 E237.34044
G1 X-20.022 Y-4.825 E237.46114
G1 X4.825 Y20.022 E241.64745
G1 X3.812 Y20.022 E241.76815
G1 X-20.022 Y-3.812 E245.78376
G1 X-20.022 Y-2.798 E245.90447
G1 X2.798 Y20.022 E249.74938
G1 X1.785 Y20.022 E249.87008
G1 X-20.022 Y-1.785 E253.54429
G1 X-20.022 Y-0.772 E253.66499
G1 X0.772 Y20.022 E257.16850
G1 X-0.241 Y20.022 E257.28921
G1 X-20.022 Y0.241 E260.62202
G1 X-20.022 Y1.254 E260.74272
G1 X-1.254 Y20.022 E263.90483
G1 X-2.267 Y20.022 E264.02554
G1 X-20.022 Y2.267 E267.01695
G1 X-20.022 Y3.280 E267.13765
G1 X-3.280 Y20.022 E269.95836
G1 X-4.293 Y20.022 E270.07906
G1 X-20.022 Y4.293 E272.72908
G1 X-20.022 Y5.307 E272.84978
G1 X-5.307 Y20.022 E275.32909
G1 X-6.320 Y20.022 E275.44979
G1 X-20.022 Y6.320 E277.75840
M73 P2
G1 Z0.700 F7800.000
G1 X-3.221 Y-3.221 F7800.000
G1 X-2.277 Y-3.945 E277.82053 F900.000
G1 X-1.179 Y-4.400 E277.88265
G1 X-0.298 Y-4.515 E277.92904
G1 X0.000 Y-4.555 E277.94477 F900.000
G1 X1.179 Y-4.400 E278.00689
G1 X2.277 Y-3.945 E278.06901
G1 X3.221 Y-3.221 E278.13113
G1 X3.945 Y-2.277 E278.19325
G1 X4.400 Y-1.179 E278.25537
G1 X4.555 Y-0.000 E278.31749
G1 X4.400 Y1.179 E278.37961
G1 X3.945 Y2.277 E278.44173
G1 X3.221 Y3.221 E278.50385
G1 X2.277 Y3.945 E278.56597
G1 X1.179 Y4.400 E278.62809
G1 X0.000 Y4.555 E278.69021
G1 X-1.179 Y4.400 E278.75233
G1 X-2.277 Y3.945 E278.81445
G1 X-3.221 Y3.221 E278.87657
G1 X-3.945 Y2.277 E278.93869
G1 X-4.400 Y1.179 E279.00081
G1 X-4.555 Y-0.000 E279.06293
G1 X-4.400 Y-1.179 E279.12505
G1 X-3.945 Y-2.277 E279.18717
G1 X-3.257 Y-3.173 E279.24616
G1 X-2.922 Y-2.922 F7800.000
G1 X-2.066 Y-3.579 E279.30252 F900.000
G1 X-1.070 Y-3.991 E279.35887
G1 X-0.244 Y-4.100 E279.40239
G1 X0.000 Y-4.132 E279.41523 F900.000
G1 X1.069 Y-3.991 E279.47159
G1 X2.066 Y-3.579 E279.52795
G1 X2.922 Y-2.922 E279.58431
G1 X3.579 Y-2.066 E279.64066
G1 X3.991 Y-1.069 E279.69702
G1 X4.132 Y-0.000 E279.75338
G1 X3.991 Y1.069 E279.80974
G1 X3.579 Y2.066 E279.86610
G1 X2.922 Y2.922 E279.92245
G1 X2.066 Y3.579 E279.97881
G1 X1.069 Y3.991 E280.03517
G1 X0.000 Y4.132 E280.09153
G1 X-1.070 Y3.991 E280.14789
G1 X-2.066 Y3.579 E280.20425
G1 X-2.922 Y2.922 E280.26060
G1 X-3.579 Y2.066 E280.31696
G1 X-3.991 Y1.069 E280.37332
G1 X-4.132 Y-0.000 E280.42968
G1 X-3.991 Y-1.069 E280.48604
G1 X-3.579 Y-2.066 E280.54239
G1 X-2.958 Y-2.874 E280.59562
G1 X-2.653 Y-2.653 F7800.000
G1 X-1.876 Y-3.249 E280.63662 F900.000
G1 X-0.971 Y-3.624 E280.67761
G1 X-0.195 Y-3.726 E280.71040
G1 X-0.000 Y-3.752 E280.71861 F900.000
G1 X0.971 Y-3.624 E280.75961
G1 X1.876 Y-3.249 E280.80061
G1 X2.653 Y-2.653 E280.84160
G1 X3.249 Y-1.876 E280.88260
G1 X3.624 Y-0.971 E280.92360
G1 X3.752 Y-0.000 E280.96460
G1 X3.624 Y0.971 E281.00560
G1 X3.249 Y1.876 E281.04659
G1 X2.653 Y2.653 E281.08759
G1 X1.876 Y3.249 E281.12859
G1 X0.971 Y3.624 E281.16959
G1 X0.000 Y3.752 E281.21059
G1 X-0.971 Y3.624 E281.25158
G1 X-1.876 Y3.249 E281.29258
G1 X-2.653 Y2.653 E281.33358
G1 X-3.249 Y1.876 E281.37458
G1 X-3.624 Y0.971 E281.41557
G1 X-3.752 Y-0.000 E281.45657
G1 X-3.624 Y-0.971 E281.49757
G1 X-3.249 Y-1.876 E281.53857
G1 X-2.689 Y-2.605 E281.57705
G1 X-2.739 Y-3.043 F7800.000
G1 X-14.001 Y-14.001 F7800.000
G1 X-7.087 Y-20.915 E282.08787 F3000.000
G1 X7.087 Y-20.915 E282.82843
G1 X20.915 Y-7.087 E283.85006
G1 X20.915 Y7.087 E284.59062 F3000.000
G1 X7.087 Y20.915 E285.61225
G1 X-7.087 Y20.915 E286.35281
G1 X-20.915 Y7.087 E287.37443
G1 X-20.915 Y-7.087 E288.11500
G1 X-14.043 Y-13.959 E288.62267
G1 X-14.297 Y-14.297 F7800.000
G1 X-7.261 Y-21.333 E289.14255 F3000.000
G1 X7.261 Y-21.333 E289.90124
G1 X21.333 Y-7.261 E290.94100
G1 X21.333 Y7.261 E291.69969 F3000.000
G1 X7.261 Y21.333 E292.73945
G1 X-7.261 Y21.333 E293.49814
G1 X-21.333 Y7.261 E294.53790
G1 X-21.333 Y-7.261 E295.29659
G1 X-14.340 Y-14.255 E295.81333
G1 X-14.564 Y-14.564 F7800.000
G1 X-7.417 Y-21.711 E296.23642 F1500.000
G1 X7.417 Y-21.711 E296.85739
G1 X21.711 Y-7.417 E297.70356
G1 X21.711 Y7.417 E298.32452 F1500.000
G1 X7.417 Y21.711 E299.17069
G1 X-7.417 Y21.711 E299.79166
G1 X-21.711 Y7.417 E300.63783
G1 X-21.711 Y-7.417 E301.25880
G1 X-14.606 Y-14.522 E301.67938
G1 X-14.178 Y-14.460 F7800.000
G1 E299.67938 F2400.00000
G1 X-6.831 Y-20.667 F7800.000
G1 E301.67938 F2400.00000
G1 X-20.667 Y-6.831 E302.71102 F1200.000
G1 X-20.667 Y-6.233 E302.74253
G1 X-6.233 Y-20.667 E303.81874
G1 X-5.635 Y-20.667 E303.85026
G1 X-20.667 Y-5.635 E304.97104
G1 X-20.667 Y-5.038 E305.00256
G1 X-5.038 Y-20.667 E306.16791
G1 X-4.440 Y-20.667 E306.19943
G1 X-20.667 Y-4.440 E307.40935
G1 X-20.667 Y-3.842 E307.44087
G1 X-3.842 Y-20.667 E308.69537
G1 X-3.244 Y-20.667 E308.72688
G1 X-20.667 Y-3.244 E310.02595
G1 X-20.667 Y-2.647 E310.05747
G1 X-2.647 Y-20.667 E311.40111
G1 X-2.049 Y-20.667 E311.43262
G1 X-20.667 Y-2.049 E312.82084
G1 X-20.667 Y-1.451 E312.85235
G1 X-1.451 Y-20.667 E314.28513
G1 X-0.853 Y-20.667 E314.31665
G1 X-20.667 Y-0.853 E315.79401
G1 X-20.667 Y-0.255 E315.82552
G1 X-0.255 Y-20.667 E317.34745
G1 X0.342 Y-20.667 E317.37896
G1 X-20.667 Y0.342 E318.94546
G1 X-20.667 Y0.940 E318.97698
G1 X0.940 Y-20.667 E320.58805
G1 X1.538 Y-20.667 E320.61956
G1 X-20.667 Y1.538 E322.27520
G1 X-20.667 Y2.136 E322.30672
G1 X2.136 Y-20.667 E324.00693
G1 X2.734 Y-20.667 E324.03845
G1 X-20.667 Y2.734 E325.78323
G1 X-20.667 Y3.331 E325.81475
G1 X3.331 Y-20.667 E327.60410
G1 X3.929 Y-20.667 E327.63562
G1 X-20.667 Y3.929 E329.46954
G1 X-20.667 Y4.527 E329.50106
G1 X4.527 Y-20.667 E331.37956
G1 X5.125 Y-20.667 E331.41108
G1 X-20.667 Y5.125 E333.33414
G1 X-20.667 Y5.723 E333.36566
G1 X5.723 Y-20.667 E335.33330
G1 X6.320 Y-20.667 E335.36482
G1 X-20.667 Y6.320 E337.37703
G1 X-20.667 Y6.918 E337.40855
G1 X6.918 Y-20.667 E339.46533
G1 X7.262 Y-20.414 E339.48787
G1 X-20.414 Y7.262 E341.55141
G1 X-20.115 Y7.561 E341.57370
G1 X7.561 Y-20.115 E343.63723
G1 X7.860 Y-19.816 E343.65952
G1 X-19.816 Y7.860 E345.72306
G1 X-19.517 Y8.159 E345.74535
G1 X8.159 Y-19.517 E347.80888
G1 X8.458 Y-19.218 E347.83117
G1 X-19.218 Y8.458 E349.89471
G1 X-18.919 Y8.757 E349.91699
G1 X8.757 Y-18.919 E351.98053
G1 X9.056 Y-18.620 E352.00282
G1 X-18.620 Y9.056 E354.06636
G1 X-18.322 Y9.355 E354.08864
G1 X9.355 Y-18.322 E356.15218
G1 X9.654 Y-18.023 E356.17447
G1 X-18.023 Y9.654 E358.23801
G1 X-17.724 Y9.952 E358.26029
G1 X9.952 Y-17.724 E360.32383
G1 X10.251 Y-17.425 E360.34612
G1 X-17.425 Y10.251 E362.40966
G1 X-10.550 Y17.126 F7800.000
G1 X2.349 Y4.226 E363.37145 F1200.000
G1 X1.338 Y4.640 F7800.000
G1 X-10.849 Y16.827 E364.28009 F1200.000
G1 X-11.148 Y16.528 E364.30238
G1 X0.649 Y4.731 E365.18197
G1 X-0.010 Y4.792 E365.21684
G1 X-11.447 Y16.229 E366.06962
G1 X-11.746 Y15.930 E366.09190
G1 X-0.538 Y4.722 E366.92758
G1 X-1.066 Y4.653 E366.95567
G1 X-12.045 Y15.631 E367.77424
G1 X-12.344 Y15.333 E367.79653
G1 X-1.511 Y4.500 E368.60421
