; generated by Slic3r 1.2.9 on 2016-01-21 at 18:02:30

; external perimeters extrusion width = 0.40mm
; perimeters extrusion width = 0.48mm
; infill extrusion width = 0.48mm
; solid infill extrusion width = 0.48mm
; top infill extrusion width = 0.48mm

M127
M109 S110 ; set bed temperature
T0; set primary extruder to left
M73 P0; enable show build progress
M109 S110 T0; heat bed up to first layer temperature
M104 S235 T0; heat left nozzle to first layer temperature
M103; disable RPM
G21; set units to mm
G162 X Y F6000; home XY axes maximum
G161 Z F9000; home Z axis minimum
G92 Z0; set Z to 0
M132 X Y Z A B; Recall stored home offsets
G90; set positioning to absolute
G1 Z30; move Z to waiting height
G1 X-95 Y-73 Z30 F14000; move to waiting position (front left corner of print bed)
G130 X0 Y0 A0 B0; set stepper motor vref to lower value while heating
M6 T0; wait for bed and extruder to heat up
G130 X127 Y127 A127 B127; set stepper motor vref to defaults
M108 T0 R3; set extruder speed
G92 E0; set E to 0
G90; use absolute coordinates
M320; acceleration enabled for all commands that follow
G1 Z0.4 F6000.000; move to first layer height
G1 X100 Y-73 F14000.000; move to front right corner of bed
G1 X-90 Y-73 E24 F2000.000; extrude a line of filament across the front edge of the bed
G4 P2000; wait for ooze to slow
G1 Z0 F6000.000; lower nozzle height to 0
G1 X-95; wipe nozzle
G1 Z0.4 F6000.000; set nozzle to first layer height
G1 F12000; ensure fast travel to first print move
G92 E0; set E to 0 again
M73 P0; reset build progress to 0
G21 ; set units to millimeters
G90 ; use absolute coordinates
M73 P0
G1 Z0.400 F7800.000
G1 E-2.00000 F2400.00000
G1 X41.214 Y0.000 F7800.000
G1 E0.00000 F2400.00000
G1 X41.214 Y43.000 E10.21381 F1800.000
G1 X40.817 Y45.275 E10.76225
G1 X39.673 Y47.280 E11.31070
G1 X37.917 Y48.780 E11.85915
G1 X35.757 Y49.595 E12.40760
G1 X34.500 Y49.714 E12.70754
G1 X-34.500 Y49.714 E29.09713
G1 X-36.775 Y49.317 E29.64558
G1 X-38.780 Y48.173 E30.19403
G1 X-40.280 Y46.417 E30.74248
G1 X-41.095 Y44.257 E31.29093
G1 X-41.214 Y43.000 E31.59086
G1 X-41.214 Y-43.000 E52.01847
G1 X-40.817 Y-45.275 E52.56692
G1 X-39.673 Y-47.280 E53.11537
G1 X-37.917 Y-48.780 E53.66382
G1 X-35.757 Y-49.595 E54.21227
G1 X-34.500 Y-49.714 E54.51220
G1 X34.500 Y-49.714 E70.90180
G1 X36.775 Y-49.317 E71.45025
G1 X38.780 Y-48.173 E71.99870 F1800.000
G1 X40.280 Y-46.417 E72.54715
G1 X41.095 Y-44.257 E73.09560
G1 X41.214 Y-43.000 E73.39553
G1 X41.214 Y-0.060 E83.59508
G1 E81.59508 F2400.00000
G1 X-28.798 Y36.919 F7800.000
G1 E83.59508 F2400.00000
G1 X-28.301 Y37.300 E83.74412 F1800.000
G1 X-27.919 Y37.798 E83.89315
G1 X-27.678 Y38.378 E84.04218
G1 X-27.597 Y39.000 E84.19122
G1 X-27.675 Y39.599 E84.33481
G1 X-27.917 Y40.200 E84.48864
G1 X-28.301 Y40.699 E84.63815
G1 X-28.798 Y41.081 E84.78719
G1 X-29.378 Y41.322 E84.93622
G1 X-30.068 Y41.412 E85.10153
G1 X-30.068 Y41.551 E85.13447
G1 X-31.202 Y41.081 E85.42597
G1 X-31.699 Y40.699 E85.57501
G1 X-32.081 Y40.202 E85.72404
G1 X-32.322 Y39.622 E85.87307
G1 X-32.403 Y39.000 E86.02210
G1 X-32.325 Y38.401 E86.16570
G1 X-32.083 Y37.800 E86.31953
G1 X-31.699 Y37.300 E86.46904
G1 X-31.200 Y36.917 E86.61856
G1 X-30.599 Y36.675 E86.77239
G1 X-30.000 Y36.597 E86.91598 F1800.000
G1 X-29.378 Y36.678 E87.06501
G1 X-28.854 Y36.896 E87.19979
G1 X-28.443 Y36.734 F7800.000
G1 E85.19979 F2400.00000
G1 X-32.606 Y37.496 F7800.000
G1 X-33.202 Y38.182 F7800.000
G1 X-33.253 Y39.032 F7800.000
G1 X-33.202 Y39.818 F7800.000
G1 X-32.906 Y39.779 F7800.000
G1 X-33.041 Y39.751 F7800.000
G1 E87.19979 F2400.00000
G1 X-32.705 Y40.562 E87.40815 F1800.000
G1 X-32.209 Y41.209 E87.60185
G1 X-31.705 Y41.595 E87.75255
G1 X-31.804 Y41.886 E87.82549
G1 X-33.386 Y41.886 E88.20118
G1 X-33.386 Y39.820 E88.69185
G1 X-33.100 Y39.763 E88.76113
G1 X-33.191 Y38.103 F7800.000
G1 X-29.475 Y32.000 F7800.000
G1 X-1.970 Y35.851 F7800.000
G1 X10.979 Y33.083 F7800.000
G1 X19.905 Y33.894 F7800.000
G1 X22.215 Y37.079 F7800.000
G1 X23.000 Y37.975 F7800.000
G1 X26.991 Y38.500 F7800.000
G1 X27.597 Y38.500 F7800.000
G1 X27.678 Y37.878 E88.91016 F1800.000
G1 X27.919 Y37.298 E89.05919
G1 X28.301 Y36.800 E89.20823
G1 X28.800 Y36.417 E89.35774
G1 X29.401 Y36.175 E89.51157
G1 X30.000 Y36.097 E89.65517 F1800.000
G1 X30.622 Y36.178 E89.80420
G1 X31.202 Y36.419 E89.95323
G1 X31.699 Y36.800 E90.10226
G1 X32.081 Y37.298 E90.25130
G1 X32.322 Y37.878 E90.40033
G1 X32.403 Y38.500 E90.54936
G1 X32.322 Y39.122 E90.69840
G1 X32.081 Y39.702 E90.84743
G1 X31.699 Y40.199 E90.99646
G1 X31.202 Y40.581 E91.14549
G1 X30.622 Y40.822 E91.29453
G1 X30.000 Y40.903 E91.44356
G1 X29.378 Y40.822 E91.59260
G1 X28.798 Y40.581 E91.74163
G1 X28.301 Y40.200 E91.89066
G1 X27.919 Y39.702 E92.03969
G1 X27.678 Y39.122 E92.18873
G1 X27.604 Y38.559 E92.32351
G1 X27.259 Y38.285 F7800.000
G1 X28.496 Y41.106 F7800.000
G1 X29.182 Y41.702 F7800.000
G1 X30.032 Y41.753 F7800.000
G1 X30.818 Y41.702 F7800.000
G1 X30.779 Y41.406 F7800.000
G1 X30.752 Y41.541 F7800.000
G1 X31.562 Y41.205 E92.53186 F1800.000
G1 X32.209 Y40.709 E92.72556
G1 X32.705 Y40.062 E92.91925
G1 X33.041 Y39.252 E93.12761
G1 X33.386 Y39.320 E93.21113
G1 X33.386 Y41.886 E93.82057
G1 X30.820 Y41.886 E94.43001
G1 X30.763 Y41.600 E94.49929
G1 X28.192 Y41.501 F7800.000
G1 X17.440 Y28.290 F7800.000
G1 X19.000 Y-24.904 F7800.000
G1 X32.057 Y-34.561 F7800.000
G1 X33.191 Y-37.603 F7800.000
G1 X33.474 Y-37.978 F7800.000
G1 X33.035 Y-40.182 F7800.000
G1 X32.606 Y-40.004 F7800.000
G1 X33.041 Y-39.252 F7800.000
G1 X32.705 Y-40.062 E94.70764 F1800.000
G1 X32.209 Y-40.709 E94.90133
G1 X31.562 Y-41.205 E95.09503
G1 X30.751 Y-41.541 E95.30339
G1 X30.820 Y-41.886 E95.38692
G1 X33.386 Y-41.886 E95.99636
G1 X33.386 Y-39.320 E96.60580
G1 X33.100 Y-39.263 E96.67507
G1 X32.381 Y-38.978 F7800.000
G1 X32.551 Y-38.568 E96.78055 F1800.000
G1 X32.412 Y-38.568 E96.81350
G1 X32.322 Y-37.878 E96.97881
G1 X32.081 Y-37.298 E97.12784
G1 X31.700 Y-36.801 E97.27687
G1 X31.202 Y-36.419 E97.42591
G1 X30.622 Y-36.178 E97.57494
G1 X30.000 Y-36.097 E97.72397
G1 X29.378 Y-36.178 E97.87300
G1 X28.798 Y-36.419 E98.02204
G1 X28.300 Y-36.801 E98.17107
G1 X27.919 Y-37.298 E98.32010
G1 X27.678 Y-37.878 E98.46914
G1 X27.597 Y-38.500 E98.61817
G1 X27.678 Y-39.122 E98.76720
G1 X27.919 Y-39.702 E98.91623
G1 X28.300 Y-40.200 E99.06527
G1 X28.800 Y-40.583 E99.21478
G1 X29.401 Y-40.825 E99.36861
G1 X30.000 Y-40.903 E99.51221 F1800.000
G1 X30.622 Y-40.822 E99.66124
G1 X31.202 Y-40.581 E99.81027
G1 X31.700 Y-40.199 E99.95930
G1 X32.081 Y-39.702 E100.10834
G1 X32.358 Y-39.034 E100.28010
G1 X32.778 Y-38.926 F7800.000
G1 E98.28010 F2400.00000
G1 X28.496 Y-35.894 F7800.000
G1 X18.117 Y-17.259 F7800.000
G1 X14.078 Y-6.087 F7800.000
G1 X10.489 Y-0.000 F7800.000
G1 X10.902 Y0.618 F7800.000
G1 X2.254 Y21.495 F7800.000
G1 X2.672 Y20.772 F7800.000
G1 E100.28010 F2400.00000
G1 X3.779 Y21.621 E100.61148 F1800.000
G1 X4.426 Y22.465 E100.86398
G1 X4.628 Y22.728 E100.94286
G1 X5.162 Y24.017 E101.27423
G1 X5.344 Y25.400 E101.60561
G1 X5.162 Y26.783 E101.93698
G1 X4.628 Y28.072 E102.26836
G1 X3.779 Y29.179 E102.59974
G1 X2.672 Y30.028 E102.93111
G1 X1.383 Y30.562 E103.26249
G1 X-0.000 Y30.744 E103.59386
G1 X-1.383 Y30.562 E103.92524
G1 X-2.672 Y30.028 E104.25661
G1 X-3.779 Y29.179 E104.58799
G1 X-4.628 Y28.072 E104.91937
G1 X-5.162 Y26.783 E105.25074
G1 X-5.344 Y25.400 E105.58212
G1 X-5.162 Y24.017 E105.91350
G1 X-4.628 Y22.728 E106.24487
G1 X-3.779 Y21.621 E106.57625
G1 X-2.672 Y20.772 E106.90762
G1 X-1.383 Y20.238 E107.23900
G1 X-1.054 Y20.195 E107.31788
G1 X-0.000 Y20.056 E107.57037 F1800.000
G1 X1.383 Y20.238 E107.90175
G1 X2.617 Y20.749 E108.21887
G1 X2.312 Y21.396 F7800.000
G1 X3.269 Y22.130 E108.50558 F1800.000
G1 X3.859 Y22.899 E108.73575
G1 X4.004 Y23.088 E108.79230
G1 X4.466 Y24.203 E109.07901
G1 X4.624 Y25.400 E109.36571
G1 X4.466 Y26.597 E109.65243
G1 X4.004 Y27.712 E109.93914
G1 X3.269 Y28.669 E110.22585
G1 X2.312 Y29.404 E110.51256
G1 X1.197 Y29.866 E110.79927
G1 X-0.000 Y30.024 E111.08598
G1 X-1.197 Y29.866 E111.37269
G1 X-2.312 Y29.404 E111.65940
G1 X-3.270 Y28.669 E111.94611
G1 X-4.004 Y27.712 E112.23282
G1 X-4.466 Y26.597 E112.51953
G1 X-4.624 Y25.400 E112.80624
G1 X-4.466 Y24.203 E113.09295
G1 X-4.004 Y23.088 E113.37966
G1 X-3.270 Y22.130 E113.66637
G1 X-2.312 Y21.396 E113.95308
G1 X-1.197 Y20.934 E114.23979
G1 X-0.961 Y20.903 E114.29634
G1 X-0.000 Y20.776 E114.52650 F1800.000
G1 X1.197 Y20.934 E114.81321
G1 X2.256 Y21.373 E115.08567
G1 X1.952 Y22.020 F7800.000
G1 X2.760 Y22.640 E115.32771 F1800.000
G1 X3.380 Y23.448 E115.56976
G1 X3.770 Y24.390 E115.81180
G1 X3.903 Y25.400 E116.05385
G1 X3.770 Y26.410 E116.29589
G1 X3.380 Y27.352 E116.53794
G1 X2.760 Y28.160 E116.77998
G1 X1.952 Y28.780 E117.02203
G1 X1.010 Y29.170 E117.26407
G1 X-0.000 Y29.303 E117.50612
G1 X-1.010 Y29.170 E117.74816
G1 X-1.952 Y28.780 E117.99020
G1 X-2.760 Y28.160 E118.23225
G1 X-3.380 Y27.352 E118.47429
G1 X-3.770 Y26.410 E118.71634
G1 X-3.903 Y25.400 E118.95838
G1 X-3.770 Y24.390 E119.20043
G1 X-3.380 Y23.448 E119.44247
G1 X-2.760 Y22.640 E119.68452
G1 X-1.952 Y22.020 E119.92656
G1 X-1.010 Y21.630 E120.16861
G1 X-0.867 Y21.611 E120.20282
G1 X-0.000 Y21.497 E120.41065 F1800.000
G1 X1.010 Y21.630 E120.65270
G1 X1.896 Y21.997 E120.88049
G1 X2.307 Y21.835 F7800.000
G1 X0.000 Y-20.056 F7800.000
G1 X-1.383 Y-20.238 E121.21187 F1800.000
G1 X-2.672 Y-20.772 E121.54324
G1 X-3.779 Y-21.621 E121.87462
G1 X-4.628 Y-22.728 E122.20599
G1 X-5.162 Y-24.017 E122.53737
G1 X-5.344 Y-25.400 E122.86875
G1 X-5.162 Y-26.783 E123.20012
G1 X-4.628 Y-28.072 E123.53150
G1 X-3.779 Y-29.179 E123.86287
G1 X-2.672 Y-30.028 E124.19425
G1 X-1.383 Y-30.562 E124.52562
G1 X-1.054 Y-30.605 E124.60450
G1 X-0.000 Y-30.744 E124.85700 F1800.000
G1 X1.383 Y-30.562 E125.18838
G1 X2.672 Y-30.028 E125.51975
G1 X3.779 Y-29.179 E125.85113
G1 X4.628 Y-28.072 E126.18251
G1 X5.162 Y-26.783 E126.51388
G1 X5.344 Y-25.400 E126.84526
G1 X5.162 Y-24.017 E127.17663
G1 X4.628 Y-22.728 E127.50801
G1 X3.779 Y-21.621 E127.83938
G1 X2.672 Y-20.772 E128.17076
G1 X1.383 Y-20.238 E128.50214
G1 X0.059 Y-20.064 E128.81926
G1 X0.000 Y-20.776 F7800.000
G1 X-1.197 Y-20.934 E129.10597 F1800.000
G1 X-2.312 Y-21.396 E129.39268
G1 X-3.270 Y-22.131 E129.67939
G1 X-4.004 Y-23.088 E129.96610
G1 X-4.466 Y-24.203 E130.25281
G1 X-4.624 Y-25.400 E130.53952
G1 X-4.466 Y-26.597 E130.82623
G1 X-4.004 Y-27.712 E131.11294
G1 X-3.270 Y-28.670 E131.39965
G1 X-2.312 Y-29.404 E131.68636
G1 X-1.197 Y-29.866 E131.97307
G1 X-0.961 Y-29.897 E132.02962
G1 X-0.000 Y-30.024 E132.25978 F1800.000
G1 X1.197 Y-29.866 E132.54650
G1 X2.312 Y-29.404 E132.83321
G1 X3.269 Y-28.670 E133.11991
G1 X4.004 Y-27.712 E133.40663
G1 X4.466 Y-26.597 E133.69334
G1 X4.624 Y-25.400 E133.98005
G1 X4.466 Y-24.203 E134.26676
G1 X4.004 Y-23.088 E134.55347
G1 X3.269 Y-22.131 E134.84018
G1 X2.312 Y-21.396 E135.12689
G1 X1.197 Y-20.934 E135.41360
G1 X0.059 Y-20.784 E135.68606
G1 X0.000 Y-21.497 F7800.000
G1 X-1.010 Y-21.630 E135.92810 F1800.000
G1 X-1.952 Y-22.020 E136.17015
G1 X-2.760 Y-22.640 E136.41219
G1 X-3.380 Y-23.448 E136.65423
G1 X-3.770 Y-24.390 E136.89628
G1 X-3.903 Y-25.400 E137.13832
G1 X-3.770 Y-26.410 E137.38037
G1 X-3.380 Y-27.352 E137.62241
G1 X-2.760 Y-28.160 E137.86446
G1 X-1.952 Y-28.780 E138.10650
G1 X-1.010 Y-29.170 E138.34855
G1 X-0.867 Y-29.189 E138.38276
G1 X-0.000 Y-29.303 E138.59059 F1800.000
G1 X1.010 Y-29.170 E138.83264
G1 X1.952 Y-28.780 E139.07468
G1 X2.760 Y-28.160 E139.31673
G1 X3.380 Y-27.352 E139.55877
G1 X3.770 Y-26.410 E139.80082
G1 X3.903 Y-25.400 E140.04286
G1 X3.770 Y-24.390 E140.28491
G1 X3.380 Y-23.448 E140.52695
G1 X2.760 Y-22.640 E140.76900
G1 X1.952 Y-22.020 E141.01104
G1 X1.010 Y-21.630 E141.25308
G1 X0.059 Y-21.504 E141.48088
G1 X-0.215 Y-21.159 F7800.000
G1 E139.48088 F2400.00000
G1 X3.905 Y-27.654 F7800.000
G1 X22.215 Y-37.079 F7800.000
G1 X25.276 Y-40.032 F7800.000
G1 X26.410 Y-40.759 F7800.000
G1 X27.196 Y-41.147 F7800.000
G1 X27.246 Y-41.172 F7800.000
G1 E141.48088 F2400.00000
G1 X26.671 Y-40.422 E141.70532 F1800.000
G1 X26.287 Y-39.495 E141.94368
G1 X26.156 Y-38.500 E142.18205
G1 X26.287 Y-37.505 E142.42041
G1 X26.671 Y-36.578 E142.65877
G1 X27.282 Y-35.782 E142.89714
G1 X28.078 Y-35.171 E143.13550
G1 X29.005 Y-34.787 E143.37387
G1 X30.000 Y-34.656 E143.61223
G1 X30.995 Y-34.787 E143.85059
G1 X31.922 Y-35.171 E144.08896
G1 X32.672 Y-35.746 E144.31340
G1 X32.672 Y35.746 E161.29498
G1 X31.922 Y35.171 E161.51942
G1 X30.995 Y34.787 E161.75778
G1 X30.000 Y34.656 E161.99615
G1 X29.035 Y34.783 E162.22735
G1 X28.085 Y35.165 E162.47052
G1 X27.282 Y35.782 E162.71108
G1 X26.671 Y36.578 E162.94945
G1 X26.287 Y37.505 E163.18781
G1 X26.156 Y38.500 E163.42617
G1 X26.287 Y39.495 E163.66454
G1 X26.671 Y40.422 E163.90290
G1 X27.246 Y41.172 E164.12734
G1 X-26.769 Y41.172 E176.95751
G1 X-26.283 Y39.965 E177.26648
G1 X-26.156 Y39.000 E177.49768
G1 X-26.287 Y38.005 E177.73605
G1 X-26.671 Y37.078 E177.97441
G1 X-27.282 Y36.282 E178.21278
G1 X-28.078 Y35.671 E178.45114
G1 X-29.005 Y35.287 E178.68950
G1 X-30.000 Y35.156 E178.92787
G1 X-30.965 Y35.283 E179.15907
G1 X-31.915 Y35.665 E179.40224
G1 X-32.672 Y36.246 E179.62888
G1 X-32.672 Y-35.746 E196.72923
G1 X-31.922 Y-35.171 E196.95367
G1 X-30.995 Y-34.787 E197.19203
G1 X-30.000 Y-34.656 E197.43040
G1 X-29.005 Y-34.787 E197.66876
G1 X-28.078 Y-35.171 E197.90712
G1 X-27.282 Y-35.782 E198.14549
G1 X-26.671 Y-36.578 E198.38385
G1 X-26.294 Y-37.489 E198.61800
G1 X-26.149 Y-38.447 E198.84813
G1 X-26.287 Y-39.495 E199.09928
G1 X-26.671 Y-40.422 E199.33764
G1 X-27.246 Y-41.172 E199.56208
G1 X27.186 Y-41.172 E212.49140
G1 X29.263 Y-41.539 F7800.000
G1 X28.443 Y-41.209 E212.70137 F1800.000
G1 X27.791 Y-40.709 E212.89642
G1 X27.295 Y-40.062 E213.09012
G1 X26.983 Y-39.308 E213.28381
G1 X26.876 Y-38.500 E213.47751
G1 X26.983 Y-37.692 E213.67121
G1 X27.295 Y-36.938 E213.86491
G1 X27.791 Y-36.291 E214.05861
G1 X28.438 Y-35.795 E214.25231
G1 X29.192 Y-35.483 E214.44600
G1 X30.000 Y-35.376 E214.63970
G1 X30.808 Y-35.483 E214.83340
G1 X31.562 Y-35.795 E215.02710
G1 X32.209 Y-36.291 E215.22080
G1 X32.705 Y-36.938 E215.41450
G1 X33.041 Y-37.748 E215.62285
G1 X33.386 Y-37.680 E215.70638
G1 X33.386 Y37.680 E233.60661
G1 X33.041 Y37.748 E233.69014
G1 X32.705 Y36.938 E233.89849
G1 X32.209 Y36.291 E234.09219
G1 X31.562 Y35.795 E234.28589
G1 X30.808 Y35.483 E234.47958
G1 X30.000 Y35.376 E234.67328
G1 X29.218 Y35.479 E234.86068
G1 X28.443 Y35.791 E235.05918
G1 X27.791 Y36.291 E235.25422
G1 X27.295 Y36.938 E235.44792
G1 X26.983 Y37.692 E235.64162
G1 X26.876 Y38.500 E235.83531
G1 X26.983 Y39.308 E236.02901
G1 X27.295 Y40.062 E236.22271
G1 X27.791 Y40.709 E236.41641
G1 X28.438 Y41.205 E236.61011
G1 X29.248 Y41.541 E236.81846
G1 X29.180 Y41.886 E236.90199
G1 X-28.196 Y41.886 E250.53046
G1 X-28.295 Y41.595 E250.60339
G1 X-27.791 Y41.209 E250.75410
G1 X-27.291 Y40.557 E250.94914
G1 X-26.979 Y39.782 E251.14764
G1 X-26.876 Y39.000 E251.33504
G1 X-26.983 Y38.192 E251.52874
G1 X-27.295 Y37.438 E251.72243
G1 X-27.791 Y36.791 E251.91614
G1 X-28.438 Y36.295 E252.10983
G1 X-29.192 Y35.983 E252.30353
G1 X-30.000 Y35.876 E252.49723
G1 X-30.782 Y35.979 E252.68463
G1 X-31.557 Y36.291 E252.88313
G1 X-32.209 Y36.791 E253.07817
G1 X-32.709 Y37.443 E253.27321
G1 X-33.039 Y38.263 E253.48319
G1 X-33.386 Y38.195 E253.56714
G1 X-33.386 Y-37.680 E271.58983
G1 X-33.041 Y-37.749 E271.67336
G1 X-32.705 Y-36.938 E271.88171
G1 X-32.209 Y-36.291 E272.07541
G1 X-31.562 Y-35.795 E272.26911
G1 X-30.808 Y-35.483 E272.46280
G1 X-30.000 Y-35.376 E272.65650
G1 X-29.192 Y-35.483 E272.85020
G1 X-28.438 Y-35.795 E273.04390
G1 X-27.791 Y-36.291 E273.23760
G1 X-27.295 Y-36.938 E273.43130
G1 X-26.987 Y-37.682 E273.62242
G1 X-26.870 Y-38.454 E273.80789
G1 X-26.983 Y-39.308 E274.01272
G1 X-27.295 Y-40.062 E274.20642
G1 X-27.791 Y-40.709 E274.40012
G1 X-28.438 Y-41.205 E274.59381
G1 X-29.249 Y-41.541 E274.80217
G1 X-29.180 Y-41.886 E274.88570
G1 X29.195 Y-41.886 E288.75161
G1 X29.251 Y-41.598 E288.82131
G1 X-27.591 Y-38.460 F7800.000
G1 X-27.680 Y-37.874 E288.96210 F1800.000
G1 X-27.919 Y-37.298 E289.11021
