; generated by Slic3r 1.2.9 on 2016-01-21 at 17:57:28

; external perimeters extrusion width = 0.40mm
; perimeters extrusion width = 0.48mm
; infill extrusion width = 0.48mm
; solid infill extrusion width = 0.48mm
; top infill extrusion width = 0.48mm

M127
M109 S110 ; set bed temperature
T0; set primary extruder to left
M73 P0; enable show build progress
M109 S110 T0; heat bed up to first layer temperature
M104 S235 T0; heat left nozzle to first layer temperature
M103; disable RPM
G21; set units to mm
G162 X Y F6000; home XY axes maximum
G161 Z F9000; home Z axis minimum
G92 Z0; set Z to 0
M132 X Y Z A B; Recall stored home offsets
G90; set positioning to absolute
G1 Z30; move Z to waiting height
G1 X-95 Y-73 Z30 F14000; move to waiting position (front left corner of print bed)
G130 X0 Y0 A0 B0; set stepper motor vref to lower value while heating
M6 T0; wait for bed and extruder to heat up
G130 X127 Y127 A127 B127; set stepper motor vref to defaults
M108 T0 R3; set extruder speed
G92 E0; set E to 0
G90; use absolute coordinates
M320; acceleration enabled for all commands that follow
G1 Z0.4 F6000.000; move to first layer height
G1 X100 Y-73 F14000.000; move to front right corner of bed
G1 X-90 Y-73 E24 F2000.000; extrude a line of filament across the front edge of the bed
G4 P2000; wait for ooze to slow
G1 Z0 F6000.000; lower nozzle height to 0
G1 X-95; wipe nozzle
G1 Z0.4 F6000.000; set nozzle to first layer height
G1 F12000; ensure fast travel to first print move
G92 E0; set E to 0 again
M73 P0; reset build progress to 0
G21 ; set units to millimeters
G90 ; use absolute coordinates
M73 P0
G1 Z0.400 F7800.000
G1 E-2.00000 F2400.00000
G1 X41.214 Y0.000 F7800.000
G1 E0.00000 F2400.00000
G1 X41.214 Y43.000 E5.10690 F1800.000
G1 X40.817 Y45.275 E5.38113
G1 X39.673 Y47.280 E5.65535
G1 X37.917 Y48.780 E5.92958
G1 X35.757 Y49.595 E6.20380
G1 X34.500 Y49.714 E6.35377
G1 X-34.500 Y49.714 E14.54857
G1 X-36.775 Y49.317 E14.82279
G1 X-38.780 Y48.173 E15.09702
G1 X-40.280 Y46.417 E15.37124
G1 X-41.095 Y44.257 E15.64547
G1 X-41.214 Y43.000 E15.79543
G1 X-41.214 Y-43.000 E26.00924
G1 X-40.817 Y-45.275 E26.28346
G1 X-39.673 Y-47.280 E26.55769
G1 X-37.917 Y-48.780 E26.83191
G1 X-35.757 Y-49.595 E27.10614
G1 X-34.500 Y-49.714 E27.25610
G1 X34.500 Y-49.714 E35.45090
G1 X36.775 Y-49.317 E35.72512
G1 X38.780 Y-48.173 E35.99935 F1800.000
G1 X40.280 Y-46.417 E36.27357
G1 X41.095 Y-44.257 E36.54780
G1 X41.214 Y-43.000 E36.69777
G1 X41.214 Y-0.060 E41.79754
G1 E39.79754 F2400.00000
G1 X-28.798 Y36.919 F7800.000
G1 E41.79754 F2400.00000
G1 X-28.301 Y37.300 E41.87206 F1800.000
G1 X-27.919 Y37.798 E41.94658
G1 X-27.678 Y38.378 E42.02109
G1 X-27.597 Y39.000 E42.09561
G1 X-27.675 Y39.599 E42.16740
G1 X-27.917 Y40.200 E42.24432
G1 X-28.301 Y40.699 E42.31908
G1 X-28.798 Y41.081 E42.39359
G1 X-29.378 Y41.322 E42.46811
G1 X-30.068 Y41.412 E42.55076
G1 X-30.068 Y41.551 E42.56724
G1 X-31.202 Y41.081 E42.71299
G1 X-31.699 Y40.699 E42.78750
G1 X-32.081 Y40.202 E42.86202
G1 X-32.322 Y39.622 E42.93654
G1 X-32.403 Y39.000 E43.01105
G1 X-32.325 Y38.401 E43.08285
G1 X-32.083 Y37.800 E43.15976
G1 X-31.699 Y37.300 E43.23452
G1 X-31.200 Y36.917 E43.30928
G1 X-30.599 Y36.675 E43.38619
G1 X-30.000 Y36.597 E43.45799 F1800.000
G1 X-29.378 Y36.678 E43.53251
G1 X-28.854 Y36.896 E43.59990
G1 X-28.443 Y36.734 F7800.000
G1 E41.59990 F2400.00000
G1 X-32.606 Y37.496 F7800.000
G1 X-33.202 Y38.182 F7800.000
G1 X-33.253 Y39.032 F7800.000
G1 X-33.202 Y39.818 F7800.000
G1 X-32.906 Y39.779 F7800.000
G1 X-33.041 Y39.751 F7800.000
G1 E43.59990 F2400.00000
G1 X-32.705 Y40.562 E43.70407 F1800.000
G1 X-32.209 Y41.209 E43.80092
G1 X-31.705 Y41.595 E43.87628
G1 X-31.804 Y41.886 E43.91274
G1 X-33.386 Y41.886 E44.10059
G1 X-33.386 Y39.820 E44.34593
G1 X-33.100 Y39.763 E44.38056
G1 X-33.191 Y38.103 F7800.000
G1 X-29.475 Y32.000 F7800.000
G1 X-1.970 Y35.851 F7800.000
G1 X10.979 Y33.083 F7800.000
G1 X19.905 Y33.894 F7800.000
G1 X22.215 Y37.079 F7800.000
G1 X23.000 Y37.975 F7800.000
G1 X26.991 Y38.500 F7800.000
G1 X27.597 Y38.500 F7800.000
G1 X27.678 Y37.878 E44.45508 F1800.000
G1 X27.919 Y37.298 E44.52960
G1 X28.301 Y36.800 E44.60411
G1 X28.800 Y36.417 E44.67887
G1 X29.401 Y36.175 E44.75579
G1 X30.000 Y36.097 E44.82758 F1800.000
G1 X30.622 Y36.178 E44.90210
G1 X31.202 Y36.419 E44.97662
G1 X31.699 Y36.800 E45.05113
G1 X32.081 Y37.298 E45.12565
G1 X32.322 Y37.878 E45.20017
G1 X32.403 Y38.500 E45.27468
G1 X32.322 Y39.122 E45.34920
G1 X32.081 Y39.702 E45.42372
G1 X31.699 Y40.199 E45.49823
G1 X31.202 Y40.581 E45.57275
G1 X30.622 Y40.822 E45.64726
G1 X30.000 Y40.903 E45.72178
G1 X29.378 Y40.822 E45.79630
G1 X28.798 Y40.581 E45.87081
G1 X28.301 Y40.200 E45.94533
G1 X27.919 Y39.702 E46.01985
G1 X27.678 Y39.122 E46.09436
G1 X27.604 Y38.559 E46.16175
G1 X27.259 Y38.285 F7800.000
G1 X28.496 Y41.106 F7800.000
G1 X29.182 Y41.702 F7800.000
G1 X30.032 Y41.753 F7800.000
G1 X30.818 Y41.702 F7800.000
G1 X30.779 Y41.406 F7800.000
G1 X30.752 Y41.541 F7800.000
G1 X31.562 Y41.205 E46.26593 F1800.000
G1 X32.209 Y40.709 E46.36278
G1 X32.705 Y40.062 E46.45963
G1 X33.041 Y39.252 E46.56380
G1 X33.386 Y39.320 E46.60557
G1 X33.386 Y41.886 E46.91029
G1 X30.820 Y41.886 E47.21501
G1 X30.763 Y41.600 E47.24964
G1 X28.192 Y41.501 F7800.000
G1 X17.440 Y28.290 F7800.000
G1 X19.000 Y-24.904 F7800.000
G1 X32.057 Y-34.561 F7800.000
G1 X33.191 Y-37.603 F7800.000
G1 X33.474 Y-37.978 F7800.000
G1 X33.035 Y-40.182 F7800.000
G1 X32.606 Y-40.004 F7800.000
G1 X33.041 Y-39.252 F7800.000
G1 X32.705 Y-40.062 E47.35382 F1800.000
G1 X32.209 Y-40.709 E47.45067
G1 X31.562 Y-41.205 E47.54752
G1 X30.751 Y-41.541 E47.65169
G1 X30.820 Y-41.886 E47.69346
G1 X33.386 Y-41.886 E47.99818
G1 X33.386 Y-39.320 E48.30290
G1 X33.100 Y-39.263 E48.33754
G1 X32.381 Y-38.978 F7800.000
G1 X32.551 Y-38.568 E48.39028 F1800.000
G1 X32.412 Y-38.568 E48.40675
G1 X32.322 Y-37.878 E48.48940
G1 X32.081 Y-37.298 E48.56392
G1 X31.700 Y-36.801 E48.63844
G1 X31.202 Y-36.419 E48.71295
G1 X30.622 Y-36.178 E48.78747
G1 X30.000 Y-36.097 E48.86199
G1 X29.378 Y-36.178 E48.93650
G1 X28.798 Y-36.419 E49.01102
G1 X28.300 Y-36.801 E49.08554
G1 X27.919 Y-37.298 E49.16005
G1 X27.678 Y-37.878 E49.23457
G1 X27.597 Y-38.500 E49.30908
G1 X27.678 Y-39.122 E49.38360
G1 X27.919 Y-39.702 E49.45812
G1 X28.300 Y-40.200 E49.53263
G1 X28.800 Y-40.583 E49.60739
G1 X29.401 Y-40.825 E49.68431
G1 X30.000 Y-40.903 E49.75610 F1800.000
G1 X30.622 Y-40.822 E49.83062
G1 X31.202 Y-40.581 E49.90514
G1 X31.700 Y-40.199 E49.97965
G1 X32.081 Y-39.702 E50.05417
G1 X32.358 Y-39.034 E50.14005
G1 X32.778 Y-38.926 F7800.000
G1 E48.14005 F2400.00000
G1 X28.496 Y-35.894 F7800.000
G1 X18.117 Y-17.259 F7800.000
G1 X14.078 Y-6.087 F7800.000
G1 X10.489 Y-0.000 F7800.000
G1 X10.902 Y0.618 F7800.000
G1 X2.254 Y21.495 F7800.000
G1 X2.672 Y20.772 F7800.000
G1 E50.14005 F2400.00000
G1 X3.779 Y21.621 E50.30574 F1800.000
G1 X4.426 Y22.465 E50.43199
G1 X4.628 Y22.728 E50.47143
G1 X5.162 Y24.017 E50.63712
G1 X5.344 Y25.400 E50.80280
G1 X5.162 Y26.783 E50.96849
G1 X4.628 Y28.072 E51.13418
G1 X3.779 Y29.179 E51.29987
G1 X2.672 Y30.028 E51.46556
G1 X1.383 Y30.562 E51.63124
G1 X-0.000 Y30.744 E51.79693
G1 X-1.383 Y30.562 E51.96262
G1 X-2.672 Y30.028 E52.12831
G1 X-3.779 Y29.179 E52.29400
G1 X-4.628 Y28.072 E52.45968
G1 X-5.162 Y26.783 E52.62537
G1 X-5.344 Y25.400 E52.79106
G1 X-5.162 Y24.017 E52.95675
G1 X-4.628 Y22.728 E53.12243
G1 X-3.779 Y21.621 E53.28812
G1 X-2.672 Y20.772 E53.45381
G1 X-1.383 Y20.238 E53.61950
G1 X-1.054 Y20.195 E53.65894
G1 X-0.000 Y20.056 E53.78519 F1800.000
G1 X1.383 Y20.238 E53.95088
G1 X2.617 Y20.749 E54.10944
G1 X2.312 Y21.396 F7800.000
G1 X3.269 Y22.130 E54.25279 F1800.000
G1 X3.859 Y22.899 E54.36788
G1 X4.004 Y23.088 E54.39615
G1 X4.466 Y24.203 E54.53950
G1 X4.624 Y25.400 E54.68286
G1 X4.466 Y26.597 E54.82621
G1 X4.004 Y27.712 E54.96957
G1 X3.269 Y28.669 E55.11292
G1 X2.312 Y29.404 E55.25628
G1 X1.197 Y29.866 E55.39963
G1 X-0.000 Y30.024 E55.54299
G1 X-1.197 Y29.866 E55.68634
G1 X-2.312 Y29.404 E55.82970
G1 X-3.270 Y28.669 E55.97305
G1 X-4.004 Y27.712 E56.11641
G1 X-4.466 Y26.597 E56.25976
G1 X-4.624 Y25.400 E56.40312
G1 X-4.466 Y24.203 E56.54647
G1 X-4.004 Y23.088 E56.68983
G1 X-3.270 Y22.130 E56.83318
G1 X-2.312 Y21.396 E56.97654
G1 X-1.197 Y20.934 E57.11990
G1 X-0.961 Y20.903 E57.14817
G1 X-0.000 Y20.776 E57.26325 F1800.000
G1 X1.197 Y20.934 E57.40661
G1 X2.256 Y21.373 E57.54283
G1 X1.952 Y22.020 F7800.000
G1 X2.760 Y22.640 E57.66386 F1800.000
G1 X3.380 Y23.448 E57.78488
G1 X3.770 Y24.390 E57.90590
G1 X3.903 Y25.400 E58.02692
G1 X3.770 Y26.410 E58.14795
G1 X3.380 Y27.352 E58.26897
G1 X2.760 Y28.160 E58.38999
G1 X1.952 Y28.780 E58.51101
G1 X1.010 Y29.170 E58.63204
G1 X-0.000 Y29.303 E58.75306
G1 X-1.010 Y29.170 E58.87408
G1 X-1.952 Y28.780 E58.99510
G1 X-2.760 Y28.160 E59.11613
G1 X-3.380 Y27.352 E59.23715
G1 X-3.770 Y26.410 E59.35817
G1 X-3.903 Y25.400 E59.47919
G1 X-3.770 Y24.390 E59.60021
G1 X-3.380 Y23.448 E59.72124
G1 X-2.760 Y22.640 E59.84226
G1 X-1.952 Y22.020 E59.96328
G1 X-1.010 Y21.630 E60.08430
G1 X-0.867 Y21.611 E60.10141
G1 X-0.000 Y21.497 E60.20533 F1800.000
G1 X1.010 Y21.630 E60.32635
G1 X1.896 Y21.997 E60.44025
G1 X2.307 Y21.835 F7800.000
G1 X0.000 Y-20.056 F7800.000
G1 X-1.383 Y-20.238 E60.60593 F1800.000
G1 X-2.672 Y-20.772 E60.77162
G1 X-3.779 Y-21.621 E60.93731
G1 X-4.628 Y-22.728 E61.10300
G1 X-5.162 Y-24.017 E61.26869
G1 X-5.344 Y-25.400 E61.43437
G1 X-5.162 Y-26.783 E61.60006
G1 X-4.628 Y-28.072 E61.76575
G1 X-3.779 Y-29.179 E61.93144
G1 X-2.672 Y-30.028 E62.09713
G1 X-1.383 Y-30.562 E62.26281
G1 X-1.054 Y-30.605 E62.30225
G1 X-0.000 Y-30.744 E62.42850 F1800.000
G1 X1.383 Y-30.562 E62.59419
G1 X2.672 Y-30.028 E62.75988
G1 X3.779 Y-29.179 E62.92556
G1 X4.628 Y-28.072 E63.09125
G1 X5.162 Y-26.783 E63.25694
G1 X5.344 Y-25.400 E63.42263
G1 X5.162 Y-24.017 E63.58832
G1 X4.628 Y-22.728 E63.75400
G1 X3.779 Y-21.621 E63.91969
G1 X2.672 Y-20.772 E64.08538
G1 X1.383 Y-20.238 E64.25107
G1 X0.059 Y-20.064 E64.40963
G1 X0.000 Y-20.776 F7800.000
G1 X-1.197 Y-20.934 E64.55299 F1800.000
G1 X-2.312 Y-21.396 E64.69634
G1 X-3.270 Y-22.131 E64.83970
G1 X-4.004 Y-23.088 E64.98305
G1 X-4.466 Y-24.203 E65.12641
G1 X-4.624 Y-25.400 E65.26976
G1 X-4.466 Y-26.597 E65.41312
G1 X-4.004 Y-27.712 E65.55647
G1 X-3.270 Y-28.670 E65.69983
G1 X-2.312 Y-29.404 E65.84318
G1 X-1.197 Y-29.866 E65.98654
G1 X-0.961 Y-29.897 E66.01481
G1 X-0.000 Y-30.024 E66.12989 F1800.000
G1 X1.197 Y-29.866 E66.27325
G1 X2.312 Y-29.404 E66.41660
G1 X3.269 Y-28.670 E66.55996
G1 X4.004 Y-27.712 E66.70331
G1 X4.466 Y-26.597 E66.84667
G1 X4.624 Y-25.400 E66.99002
G1 X4.466 Y-24.203 E67.13338
G1 X4.004 Y-23.088 E67.27673
G1 X3.269 Y-22.131 E67.42009
G1 X2.312 Y-21.396 E67.56344
G1 X1.197 Y-20.934 E67.70680
G1 X0.059 Y-20.784 E67.84303
G1 X0.000 Y-21.497 F7800.000
G1 X-1.010 Y-21.630 E67.96405 F1800.000
G1 X-1.952 Y-22.020 E68.08507
G1 X-2.760 Y-22.640 E68.20610
G1 X-3.380 Y-23.448 E68.32712
G1 X-3.770 Y-24.390 E68.44814
G1 X-3.903 Y-25.400 E68.56916
G1 X-3.770 Y-26.410 E68.69018
G1 X-3.380 Y-27.352 E68.81121
G1 X-2.760 Y-28.160 E68.93223
G1 X-1.952 Y-28.780 E69.05325
G1 X-1.010 Y-29.170 E69.17427
G1 X-0.867 Y-29.189 E69.19138
G1 X-0.000 Y-29.303 E69.29530 F1800.000
G1 X1.010 Y-29.170 E69.41632
G1 X1.952 Y-28.780 E69.53734
G1 X2.760 Y-28.160 E69.65836
G1 X3.380 Y-27.352 E69.77939
G1 X3.770 Y-26.410 E69.90041
G1 X3.903 Y-25.400 E70.02143
G1 X3.770 Y-24.390 E70.14245
G1 X3.380 Y-23.448 E70.26348
G1 X2.760 Y-22.640 E70.38450
G1 X1.952 Y-22.020 E70.50552
G1 X1.010 Y-21.630 E70.62654
G1 X0.059 Y-21.504 E70.74044
G1 X-0.215 Y-21.159 F7800.000
G1 E68.74044 F2400.00000
G1 X3.905 Y-27.654 F7800.000
G1 X22.215 Y-37.079 F7800.000
G1 X25.276 Y-40.032 F7800.000
G1 X26.410 Y-40.759 F7800.000
G1 X27.196 Y-41.147 F7800.000
G1 X27.246 Y-41.172 F7800.000
G1 E70.74044 F2400.00000
G1 X26.671 Y-40.422 E70.85266 F1800.000
G1 X26.287 Y-39.495 E70.97184
G1 X26.156 Y-38.500 E71.09102
G1 X26.287 Y-37.505 E71.21020
G1 X26.671 Y-36.578 E71.32939
G1 X27.282 Y-35.782 E71.44857
G1 X28.078 Y-35.171 E71.56775
G1 X29.005 Y-34.787 E71.68693
G1 X30.000 Y-34.656 E71.80611
G1 X30.995 Y-34.787 E71.92530
G1 X31.922 Y-35.171 E72.04448
G1 X32.672 Y-35.746 E72.15670
G1 X32.672 Y35.746 E80.64749
G1 X31.922 Y35.171 E80.75971
G1 X30.995 Y34.787 E80.87889
G1 X30.000 Y34.656 E80.99807
G1 X29.035 Y34.783 E81.11368
G1 X28.085 Y35.165 E81.23526
G1 X27.282 Y35.782 E81.35554
G1 X26.671 Y36.578 E81.47472
G1 X26.287 Y37.505 E81.59390
G1 X26.156 Y38.500 E81.71309
G1 X26.287 Y39.495 E81.83227
G1 X26.671 Y40.422 E81.95145
G1 X27.246 Y41.172 E82.06367
G1 X-26.769 Y41.172 E88.47876
G1 X-26.283 Y39.965 E88.63324
G1 X-26.156 Y39.000 E88.74884
G1 X-26.287 Y38.005 E88.86802
G1 X-26.671 Y37.078 E88.98721
G1 X-27.282 Y36.282 E89.10639
G1 X-28.078 Y35.671 E89.22557
G1 X-29.005 Y35.287 E89.34475
G1 X-30.000 Y35.156 E89.46393
G1 X-30.965 Y35.283 E89.57954
G1 X-31.915 Y35.665 E89.70112
G1 X-32.672 Y36.246 E89.81444
G1 X-32.672 Y-35.746 E98.36461
G1 X-31.922 Y-35.171 E98.47683
G1 X-30.995 Y-34.787 E98.59602
G1 X-30.000 Y-34.656 E98.71520
G1 X-29.005 Y-34.787 E98.83438
G1 X-28.078 Y-35.171 E98.95356
G1 X-27.282 Y-35.782 E99.07274
G1 X-26.671 Y-36.578 E99.19193
G1 X-26.294 Y-37.489 E99.30900
G1 X-26.149 Y-38.447 E99.42406
G1 X-26.287 Y-39.495 E99.54964
G1 X-26.671 Y-40.422 E99.66882
G1 X-27.246 Y-41.172 E99.78104
G1 X27.186 Y-41.172 E106.24570
G1 X29.263 Y-41.539 F7800.000
G1 X28.443 Y-41.209 E106.35069 F1800.000
G1 X27.791 Y-40.709 E106.44821
G1 X27.295 Y-40.062 E106.54506
G1 X26.983 Y-39.308 E106.64191
G1 X26.876 Y-38.500 E106.73876
G1 X26.983 Y-37.692 E106.83561
G1 X27.295 Y-36.938 E106.93245
G1 X27.791 Y-36.291 E107.02930
G1 X28.438 Y-35.795 E107.12615
G1 X29.192 Y-35.483 E107.22300
G1 X30.000 Y-35.376 E107.31985
G1 X30.808 Y-35.483 E107.41670
G1 X31.562 Y-35.795 E107.51355
G1 X32.209 Y-36.291 E107.61040
G1 X32.705 Y-36.938 E107.70725
G1 X33.041 Y-37.748 E107.81142
G1 X33.386 Y-37.680 E107.85319
G1 X33.386 Y37.680 E116.80331
G1 X33.041 Y37.748 E116.84507
G1 X32.705 Y36.938 E116.94924
G1 X32.209 Y36.291 E117.04609
G1 X31.562 Y35.795 E117.14294
G1 X30.808 Y35.483 E117.23979
G1 X30.000 Y35.376 E117.33664
G1 X29.218 Y35.479 E117.43034
G1 X28.443 Y35.791 E117.52959
G1 X27.791 Y36.291 E117.62711
G1 X27.295 Y36.938 E117.72396
G1 X26.983 Y37.692 E117.82081
G1 X26.876 Y38.500 E117.91766
G1 X26.983 Y39.308 E118.01451
G1 X27.295 Y40.062 E118.11136
G1 X27.791 Y40.709 E118.20821
G1 X28.438 Y41.205 E118.30505
G1 X29.248 Y41.541 E118.40923
G1 X29.180 Y41.886 E118.45099
G1 X-28.196 Y41.886 E125.26523
G1 X-28.295 Y41.595 E125.30170
G1 X-27.791 Y41.209 E125.37705
G1 X-27.291 Y40.557 E125.47457
G1 X-26.979 Y39.782 E125.57382
G1 X-26.876 Y39.000 E125.66752
G1 X-26.983 Y38.192 E125.76437
G1 X-27.295 Y37.438 E125.86122
G1 X-27.791 Y36.791 E125.95807
G1 X-28.438 Y36.295 E126.05492
G1 X-29.192 Y35.983 E126.15177
G1 X-30.000 Y35.876 E126.24861
G1 X-30.782 Y35.979 E126.34231
G1 X-31.557 Y36.291 E126.44156
G1 X-32.209 Y36.791 E126.53908
G1 X-32.709 Y37.443 E126.63660
G1 X-33.039 Y38.263 E126.74159
G1 X-33.386 Y38.195 E126.78357
G1 X-33.386 Y-37.680 E135.79491
G1 X-33.041 Y-37.749 E135.83668
G1 X-32.705 Y-36.938 E135.94085
G1 X-32.209 Y-36.291 E136.03770
G1 X-31.562 Y-35.795 E136.13455
G1 X-30.808 Y-35.483 E136.23140
G1 X-30.000 Y-35.376 E136.32825
G1 X-29.192 Y-35.483 E136.42510
G1 X-28.438 Y-35.795 E136.52195
G1 X-27.791 Y-36.291 E136.61880
G1 X-27.295 Y-36.938 E136.71565
G1 X-26.987 Y-37.682 E136.81121
G1 X-26.870 Y-38.454 E136.90394
G1 X-26.983 Y-39.308 E137.00636
G1 X-27.295 Y-40.062 E137.10321
G1 X-27.791 Y-40.709 E137.20006
G1 X-28.438 Y-41.205 E137.29691
G1 X-29.249 Y-41.541 E137.40108
G1 X-29.180 Y-41.886 E137.44285
G1 X29.195 Y-41.886 E144.37580
G1 X29.251 Y-41.598 E144.41065
G1 X-27.591 Y-38.460 F7800.000
G1 X-27.680 Y-37.874 E144.48105 F1800.000
G1 X-27.919 Y-37.298 E144.55511
G1 X-28.301 Y-36.801 E144.62962
G1 X-28.798 Y-36.419 E144.70414
G1 X-29.378 Y-36.178 E144.77866
G1 X-30.000 Y-36.097 E144.85317
G1 X-30.622 Y-36.178 E144.92769
G1 X-31.202 Y-36.419 E145.00220
G1 X-31.699 Y-36.801 E145.07672
